images_sukapura_svg/cmd/sc_opentemplate.svg

<svg viewBox="0 0 16 16" xmlns="http://www.w3.org/2000/svg" xmlns:xlink="http://www.w3.org/1999/xlink"><radialGradient id="a" cx="10.994179" cy="4.42844" gradientTransform="matrix(1.4 .00000004 -.00000001 1.2 -4.39185 -2.314129)" gradientUnits="userSpaceOnUse" r="5"><stop offset="0" stop-color="#d7d7d7"/><stop offset=".49894297" stop-color="#f7f7f7"/><stop offset="1" stop-color="#fff"/></radialGradient><linearGradient id="b" gradientUnits="userSpaceOnUse" x1="10" x2="11.500001" y1="4" y2="2.499999"><stop offset="0" stop-color="#fff"/><stop offset=".77967989" stop-color="#f1f1f1"/><stop offset="1" stop-color="#d5d5d5"/></linearGradient><linearGradient id="c" gradientUnits="userSpaceOnUse" x1="8" x2="8" y1="5" y2="15"><stop offset="0" stop-color="#68caf8"/><stop offset=".5" stop-color="#70cef9"/><stop offset=".71428573" stop-color="#79d3fb"/><stop offset=".9285714" stop-color="#67c1ed"/><stop offset="1" stop-color="#67bfea"/></linearGradient>





     /&amp;amp;amp;gt;
 <g fill-rule="evenodd"><path d="m10.5 3.5000002c-.265199.0000511-.519519.1054326-.707031.2929688l-3.207031 1.7070312-5.085938-.0000004c-.5522619.0000552-.9999448.4477381-1 1.0000002v9h1 11l1-8.5v-2.5c-.000055-.5522619-.447738-.9999448-1-1z" fill="#94ddff" stroke="#2bbcff"/><path d="m3 1v12h10v-9.2949219l-2.695312-2.7050781z" fill="url(#a)"/><path d="m3 0c-.554 0-1 .446-1 1v12c0 .554.446 1 1 1h10c.554 0 1-.446 1-1v-8.5-.8632812l-3.636719-3.6367188h-.863281zm0 1h6v3.5c0 .277.223.5.5.5h3.5v8h-10zm7 0 3 3h-3z" fill="#98989d"/><path d="m10 1 3 3h-3z" fill="url(#b)"/><path d="m13.5.5-9.5000001 10.5h9.5000001zm-2 5.4999997v.976392 2.023608h-2-.5z" fill="#fc0" fill-rule="evenodd" stroke="#c89e00" stroke-linecap="round" stroke-linejoin="round"/><path d="m.79012198 15.5h1.00000002 10.709878l2.744141-7.0078125c.29761-.9920364.297634-.9921875-.742188-.9921875h-.002-1-1-7.6883936c-1.0211394 0-1.0207621-.0005516-1.2792499.9902344l-1.7421875 4.1757816z" fill="url(#c)" stroke="#15b0f5"/></g></svg>

<?xml version="1.0" encoding="UTF-8" standalone="no"?>
<svg
   xmlns:dc="http://purl.org/dc/elements/1.1/"
   xmlns:cc="http://creativecommons.org/ns#"
   xmlns:rdf="http://www.w3.org/1999/02/22-rdf-syntax-ns#"
   xmlns:svg="http://www.w3.org/2000/svg"
   xmlns="http://www.w3.org/2000/svg"
   xmlns:sodipodi="http://sodipodi.sourceforge.net/DTD/sodipodi-0.dtd"
   xmlns:inkscape="http://www.inkscape.org/namespaces/inkscape"
   viewBox="0 0 16 16"
   version="1.1"
   id="svg19"
   sodipodi:docname="sc_opentemplate.svg"
   inkscape:version="0.92.3 (unknown)"><metadata
   id="metadata25">
  <rdf:RDF>
    <cc:Work
       rdf:about="">
      <dc:format>image/svg+xml</dc:format>
      <dc:type
         rdf:resource="http://purl.org/dc/dcmitype/StillImage" />
      <dc:title></dc:title>
    </cc:Work>
  </rdf:RDF>
</metadata>
<defs
   id="defs23">
  <radialGradient
     id="b"
     cx="10.994179"
     cy="4.4284401"
     gradientTransform="matrix(1.4,4e-8,-1e-8,1.2,-4.39185,-2.314129)"
     gradientUnits="userSpaceOnUse"
     r="5">
    <stop
       offset="0"
       stop-color="#d7d7d7"
       id="stop9" />
    <stop
       offset=".49894297"
       stop-color="#f7f7f7"
       id="stop11" />
    <stop
       offset="1"
       stop-color="#fff"
       id="stop13" />
  </radialGradient>
  <linearGradient
     id="a-3"
     gradientUnits="userSpaceOnUse"
     x1="10"
     x2="11.500001"
     y1="4"
     y2="2.4999993">
    <stop
       offset="0"
       stop-color="#fff"
       id="stop2-6" />
    <stop
       offset=".77967989"
       stop-color="#f1f1f1"
       id="stop4-7" />
    <stop
       offset="1"
       stop-color="#d5d5d5"
       id="stop6-5" />
  </linearGradient>
</defs>
<sodipodi:namedview
   pagecolor="#ffffff"
   bordercolor="#666666"
   borderopacity="1"
   objecttolerance="10"
   gridtolerance="10"
   guidetolerance="10"
   inkscape:pageopacity="0"
   inkscape:pageshadow="2"
   inkscape:window-width="1366"
   inkscape:window-height="699"
   id="namedview21"
   showgrid="true"
   inkscape:zoom="10.429825"
   inkscape:cx="4.1926634"
   inkscape:cy="6.4489303"
   inkscape:window-x="0"
   inkscape:window-y="0"
   inkscape:window-maximized="1"
   inkscape:current-layer="g17">
  <inkscape:grid
     type="xygrid"
     id="grid849"
     spacingx="0.5"
     spacingy="0.5"
     empspacing="2" />
</sodipodi:namedview>
<linearGradient
   id="a"
   gradientUnits="userSpaceOnUse"
   x1="8"
   x2="8"
   y1="4"
   y2="14"
   gradientTransform="translate(0,1)">
  <stop
     offset="0"
     stop-color="#68caf8"
     id="stop2" />
  <stop
     offset=".5"
     stop-color="#70cef9"
     id="stop4" />
  <stop
     offset=".71428573"
     stop-color="#79d3fb"
     id="stop6" />
  <stop
     offset=".9285714"
     stop-color="#67c1ed"
     id="stop8" />
  <stop
     offset="1"
     stop-color="#67bfea"
     id="stop10" />
</linearGradient>





     /&amp;amp;gt;
 <g
   fill-rule="evenodd"
   id="g17">
  <path
     d="M 10.5,3.5000002 C 10.234801,3.5000513 9.980481,3.6054328 9.792969,3.792969 L 6.585938,5.5000002 1.5,5.4999998 C 0.9477381,5.500055 0.5000552,5.9477379 0.5,6.5 v 9 h 1 11 L 13.5,7 V 4.5 c -5.5e-5,-0.5522619 -0.447738,-0.9999448 -1,-1 z"
     id="path13"
     inkscape:connector-curvature="0"
     style="fill:#94ddff;stroke:#2bbcff"
     sodipodi:nodetypes="cccccccccccc" />
  <g
     id="g838">
    <path
       style="fill:url(#b)"
       inkscape:connector-curvature="0"
       id="path16"
       d="M 3,1 V 13 H 13 V 3.7050781 L 10.304688,1 Z"
       sodipodi:nodetypes="cccccc" />
    <path
       style="fill:#98989d"
       inkscape:connector-curvature="0"
       id="path18"
       d="M 3,0 C 2.446,0 2,0.446 2,1 v 12 c 0,0.554 0.446,1 1,1 h 10 c 0.554,0 1,-0.446 1,-1 V 4.5 3.6367188 L 10.363281,0 H 9.5 Z M 3,1 H 9 V 4.5 C 9,4.777 9.223,5 9.5,5 H 13 v 8 H 3 Z m 7,0 3,3 h -3 z"
       sodipodi:nodetypes="ssssssccccsccsscccccccc" />
    <path
       style="fill:url(#a-3)"
       inkscape:connector-curvature="0"
       id="path20"
       d="m 10,1 3,3 h -3 z" />
  </g>
  <path
     inkscape:connector-curvature="0"
     style="fill:#ffcc00;fill-opacity:1;fill-rule:evenodd;stroke:#c89e00;stroke-linecap:round;stroke-linejoin:round;stroke-opacity:1"
     d="M 13.5,0.5 3.9999999,11 H 13.5 Z m -2,5.4999997 v 0.976392 2.023608 H 9.5 9 Z"
     id="path8"
     sodipodi:nodetypes="cccccccccc" />
  <path
     d="M 0.79012198,15.5 H 1.790122 12.5 L 15.244141,8.4921875 C 15.541751,7.5001511 15.541775,7.5 14.501953,7.5 h -0.002 -1 -1 -7.6883936 C 3.79042,7.5 3.7907973,7.4994484 3.5323095,8.4902344 L 1.790122,12.666016 Z"
     id="path15"
     inkscape:connector-curvature="0"
     style="fill:url(#a);stroke:#15b0f5"
     sodipodi:nodetypes="ccccscccsccc" />
</g>
</svg>
